X: 2
T:Dadl Dau
T:Flaunting Two ()
M:6/8
L:1/8
Q:130
S:Cadw Twmpath Collection
R:Jig
A:Wales
N:I don't know where the English title comes from as
N:"Dadl" means "debate" B.M.
Z:brian_martin12345@yahoo.com
K:G
d2d ded|c2B ABc|d2GG2A|B3c3:||
BAGG2B|AFDD2D|DGGG2A|B3c3|
BAGG2B|AFDD2d|gGGG2A|B3c3||
